X:6965
T:Helen Black of Inveran
R:Pipe march
O:Scotland
M:C
C:Jimmy Ritchie
K:Hp
e>d|\
c>d c>B B>A A>c|e>f e<c e2 f>g|\
a>g g>f f>e e>c|c>f e<c B2 e>d|\
c>d c>B B>A A>c|e>f e<c e2 f>g|\
a>f d<B e>d c<B|{d}c2A2 A<A::\
e2|\
ce (3eee f>e e>c|c>e e>f e2 f>g|\
a>g g>f f>e e>c|c>f e<c B2 e2|\
c>e (3eee f>e e>c|c>f f>e f2 f>g|\
a>f d<B e>d c<B|{d}c2A2 A<A::\
a2|\
e>c c>B A>c c>e|f>c c>B c2 f>g|\
a>f f>d A>d d>f|f>e e>c B2 a2|\
e>c c>B A>c c>e|f>c c>B c2 f>g|\
a>f d<B e>d c<B|{d}c2A2 A<A::\
a2|\
A>c (3ccc A>c c>A|A>f e>d c2 f>g|\
a>f f>d A>d d>f|f>e e>c B2a2|1\
A>c (3ccc A>c c>A|A>f e>d c2f>g|\
a>f d<B e>d c<B|{d}c2A2 A<A :|2\
A>B B>c c>d d>e|e>d d>c c2f>g|\
a>f d<B e>d c<B|{d}c2A2 A2||


